packages/swarm-icons/src/icons/line/Download.svg

<svg xmlns="http://www.w3.org/2000/svg" width="24" height="24" viewBox="0 0 24 24">
  <path fill="#757575" d="M21.5,18 C21.5,17.7238576 21.7238576,17.5 22,17.5 C22.2761424,17.5 22.5,17.7238576 22.5,18 C22.5,19.9329966 20.9329966,21.5 19,21.5 L5,21.5 C3.06700338,21.5 1.5,19.9329966 1.5,18 C1.5,17.7238576 1.72385763,17.5 2,17.5 C2.27614237,17.5 2.5,17.7238576 2.5,18 C2.5,19.3807119 3.61928813,20.5 5,20.5 L19,20.5 C20.3807119,20.5 21.5,19.3807119 21.5,18 Z M12.5,14.8865781 L16.1678181,11.6262953 C16.3742095,11.4428363 16.6902457,11.4614267 16.8737047,11.6678181 C17.0571637,11.8742095 17.0385733,12.1902457 16.8321819,12.3737047 L12.3337821,16.3722823 C12.2452692,16.4516947 12.1282757,16.5 12,16.5 C11.8717243,16.5 11.7547308,16.4516947 11.6662179,16.3722823 L7.16781808,12.3737047 C6.9614267,12.1902457 6.94283633,11.8742095 7.12629534,11.6678181 C7.30975435,11.4614267 7.62579054,11.4428363 7.83218192,11.6262953 L11.5,14.8865781 L11.5,4 C11.5,3.72385763 11.7238576,3.5 12,3.5 C12.2761424,3.5 12.5,3.72385763 12.5,4 L12.5,14.8865781 Z"/>
</svg>

<svg xmlns="http://www.w3.org/2000/svg" width="24" height="24"><path fill="#757575" d="M21.5 18a.5.5 0 111 0 3.5 3.5 0 01-3.5 3.5H5A3.5 3.5 0 011.5 18a.5.5 0 111 0A2.5 2.5 0 005 20.5h14a2.5 2.5 0 002.5-2.5zm-9-3.113l3.668-3.26a.5.5 0 01.664.747l-4.498 3.998a.498.498 0 01-.668 0l-4.498-3.998a.5.5 0 01.664-.748l3.668 3.26V4a.5.5 0 111 0v10.887z"/></svg>
